X:1
T: Gushet Neuk
C:
R:Jig
Q:180
K:D
M:6/8
L:1/16
|:A2|d2A2d2 f2e2d2|e4A2a4g2|f2g2a2 d2e2f2|g4f2e4A2|
d2A2d2 f2e2d2|e4A2a4g2|f2e2d2e4A2|f6f4:|
|:A2|B2F2B2 d2c2B2|^A2B2c2 F2f2e2|d2e2f2 B2c2d2|e4d2c4F2|
B2F2B2 d2c2B2|^A2B2c2 F2f2e2|d2c2B2c4F2|B6B4:|
